; generated by PrusaSlicer 2.5.0+MacOS-x64 on 2023-03-02 at 04:13:23 UTC


;
;
; 

; external perimeters extrusion width = 0.45mm
; perimeters extrusion width = 0.45mm
; infill extrusion width = 0.45mm
; solid infill extrusion width = 0.45mm
; top infill extrusion width = 0.40mm
; first layer extrusion width = 0.42mm

M73 P0 R55
M73 Q0 S56
M201 X1000 Y1000 Z200 E5000 ; sets maximum accelerations, mm/sec^2
M203 X200 Y200 Z12 E120 ; sets maximum feedrates, mm / sec
M204 P1250 R1250 T1250 ; sets acceleration (P, T) and retract acceleration (R), mm/sec^2
M205 X8.00 Y8.00 Z0.40 E4.50 ; sets the jerk limits, mm/sec
M205 S0 T0 ; sets the minimum extruding and travel feed rate, mm/sec
M107
;TYPE:Custom
M862.3 P "MK3S" ; printer model check
M862.1 P0.4 ; nozzle diameter check
M115 U3.11.0 ; tell printer latest fw version
G90 ; use absolute coordinates
M83 ; extruder relative mode
M104 S215 ; set extruder temp
M140 S60 ; set bed temp
M190 S60 ; wait for bed temp
M109 S215 ; wait for extruder temp
G28 W ; home all without mesh bed level
G80 ; mesh bed leveling

G1 Z0.2 F720
G1 Y-3 F1000 ; go outside print area
G92 E0
G1 X60 E9 F1000 ; intro line
G1 X100 E12.5 F1000 ; intro line

G92 E0
M221 S95

; Don't change E values below. Excessive value can damage the printer.
M907 E430 ; set extruder motor current
G21 ; set units to millimeters
G90 ; use absolute coordinates
M83 ; use relative distances for extrusion
M900 K0.05 ; Filament gcode LA 1.5
M900 K30 ; Filament gcode LA 1.0
M107
;LAYER_CHANGE
;Z:0.2
;HEIGHT:0.2
;BEFORE_LAYER_CHANGE
G92 E0.0
;0.2


M73 Q0 S55
G1 E-.8 F2100
G1 Z.4 F720
;AFTER_LAYER_CHANGE
;0.2
G1 X109.891 Y90.42 F10800
G1 Z.2 F720
G1 E.8 F2100
M204 S800
;TYPE:Skirt/Brim
;WIDTH:0.42
G1 F1200
G1 X111.561 Y88.714 E.07484
G1 X113.114 Y87.415 E.06349
G1 X114.74 Y86.287 E.06206
G1 X116.446 Y85.318 E.06151
G1 X118.272 Y84.488 E.0629
G1 X120.241 Y83.804 E.06533
G1 X122.419 Y83.279 E.07025
G1 X124.388 Y83 E.06235
G1 X126.553 Y82.899 E.06796
G1 X128.274 Y82.972 E.054
G1 X129.851 Y83.154 E.04979
G1 X131.09 Y83.741 E.04299
G1 X139.695 Y91.54 E.36412
G1 X140.661 Y92.574 E.04437
G1 X141.521 Y93.643 E.04301
G1 X142.936 Y95.848 E.08216
G1 X143.594 Y97.17 E.04628
G1 X144.787 Y99.967 E.09537
G1 X144.967 Y101.125 E.03672
G1 X144.354 Y107.352 E.1962
G1 X143.791 Y109.95 E.08335
G1 X143.152 Y111.755 E.06003
G1 X142.339 Y113.457 E.05915
G1 X141.386 Y115.016 E.05728
G1 X140.305 Y116.439 E.05603
G1 X131.231 Y126.122 E.41609
G1 X129.5 Y126.87 E.05912
G1 X123.5 Y126.87 E.18813
G1 X121.304 Y126.482 E.06992
G1 X119.337 Y125.907 E.06424
G1 X117.33 Y125.108 E.06775
G1 X115.57 Y124.209 E.06197
G1 X113.888 Y123.149 E.06233
G1 X112.28 Y121.918 E.0635
G1 X110.81 Y120.564 E.06268
G1 X109.35 Y118.939 E.06848
G1 X108.161 Y117.335 E.0626
G1 X107.133 Y115.646 E.06201
G1 X106.138 Y113.59 E.07159
G1 X105.399 Y111.571 E.06742
G1 X104.815 Y109.27 E.07445
G1 X104.527 Y107.375 E.06008
G1 X104.405 Y105.498 E.05897
G1 X104.447 Y103.551 E.06108
G1 X104.649 Y101.681 E.05898
G1 X105.116 Y99.419 E.07242
G1 X105.723 Y97.467 E.06408
G1 X106.463 Y95.677 E.06072
G1 X107.61 Y93.527 E.07642
G1 X108.65 Y91.969 E.05873
G1 X109.853 Y90.467 E.06034
M204 S1000
;WIPE_START
G1 F8640
G1 X111.561 Y88.714 E-.56497
G1 X112.208 Y88.172 E-.19503
;WIPE_END
G1 E-.04 F2100
G1 Z.6 F720
G1 X114.32 Y94.37 F10800
G1 Z.2 F720
G1 E.8 F2100
M204 S800
G1 F1200
G1 X114.795 Y93.827 E.0226
G1 X115.629 Y93.002 E.03679
G1 X116.543 Y92.224 E.03765
G1 X117.55 Y91.492 E.03903
G1 X118.539 Y90.88 E.03646
G1 X119.479 Y90.383 E.03335
G1 X120.684 Y89.858 E.04122
G1 X121.951 Y89.427 E.04195
G1 X123.021 Y89.15 E.03464
G1 X124.11 Y88.947 E.03474
G1 X125.36 Y88.81 E.03942
G1 X126.632 Y88.769 E.03991
G1 X127.679 Y88.813 E.03285
G1 X128.731 Y88.924 E.03316
G1 X129.96 Y89.146 E.03917
G1 X131.13 Y89.451 E.03789
G1 X132.259 Y89.836 E.03742
G1 X133.455 Y90.352 E.04083
G1 X134.437 Y90.866 E.03476
G1 X135.402 Y91.459 E.03549
G1 X136.397 Y92.178 E.03849
G1 X137.348 Y92.982 E.03906
G1 X138.205 Y93.827 E.03773
G1 X139.001 Y94.74 E.03797
G1 X139.69 Y95.658 E.03601
G1 X140.081 Y96.246 E.02213
G1 X140.615 Y97.154 E.03302
G1 X140.972 Y97.849 E.02451
G1 X141.457 Y98.986 E.03876
G1 X141.671 Y100.249 E.04015
G1 X141.529 Y101.545 E.04086
G1 X141.13 Y102.579 E.03477
G1 X140.319 Y103.724 E.04398
G1 X139.362 Y104.5 E.03862
G1 X138.371 Y104.961 E.03427
G1 X137.324 Y105.179 E.03353
G1 X134.465 Y105.174 E.08966
G1 X133.818 Y105.026 E.0208
G1 X133.373 Y105.192 E.01491
G1 X132.265 Y105.365 E.03516
G1 X131.04 Y105.385 E.03841
G1 X129.903 Y105.197 E.03614
G1 X127.904 Y105.095 E.06273
G1 X127.202 Y104.886 E.02297
G1 X126.498 Y104.591 E.02393
G1 X125.786 Y104.891 E.02422
G1 X125.088 Y105.097 E.02284
G1 X123.101 Y105.197 E.06236
G1 X121.885 Y105.391 E.03862
G1 X120.694 Y105.362 E.03736
G1 X119.626 Y105.201 E.03385
G1 X119.146 Y105.032 E.01596
G1 X118.453 Y105.182 E.02223
G1 X115.328 Y105.136 E.098
G1 X114.423 Y104.887 E.02944
G1 X113.606 Y104.482 E.02858
G1 X112.713 Y103.759 E.03605
G1 X111.869 Y102.579 E.04548
G1 X111.47 Y101.545 E.03476
G1 X111.328 Y100.247 E.04091
G1 X111.557 Y98.939 E.04163
G1 X112.024 Y97.856 E.037
G1 X112.379 Y97.164 E.02438
G1 X112.912 Y96.256 E.03302
G1 X113.302 Y95.668 E.02213
G1 X114.007 Y94.728 E.03681
G1 X114.281 Y94.415 E.01304
M204 S1000
G1 X114.564 Y94.663 F10800
M204 S800
G1 F1200
G1 X115.074 Y94.081 E.02426
G1 X115.889 Y93.276 E.03592
G1 X116.782 Y92.516 E.03677
G1 X117.766 Y91.801 E.03813
G1 X118.732 Y91.204 E.03559
G1 X119.649 Y90.72 E.03252
G1 X120.828 Y90.206 E.04032
G1 X122.053 Y89.79 E.04056
G1 X123.109 Y89.517 E.03421
G1 X124.172 Y89.319 E.0339
G1 X125.394 Y89.186 E.03854
G1 X126.624 Y89.146 E.03858
G1 X127.657 Y89.189 E.03244
G1 X128.684 Y89.299 E.03238
G1 X129.872 Y89.513 E.03785
G1 X131.014 Y89.81 E.03701
G1 X132.13 Y90.191 E.03697
G1 X133.299 Y90.695 E.03991
G1 X134.256 Y91.197 E.03389
G1 X135.198 Y91.777 E.03467
G1 X136.17 Y92.479 E.03761
G1 X137.099 Y93.266 E.03815
G1 X137.926 Y94.081 E.0364
G1 X138.704 Y94.972 E.03709
G1 X139.385 Y95.88 E.03561
G1 X139.764 Y96.45 E.02146
G1 X140.287 Y97.34 E.03237
G1 X140.634 Y98.016 E.02382
G1 X141.09 Y99.074 E.03611
G1 X141.293 Y100.237 E.03701
G1 X141.168 Y101.434 E.03775
G1 X140.808 Y102.381 E.03175
G1 X140.027 Y103.485 E.0424
G1 X139.182 Y104.167 E.03404
G1 X138.233 Y104.61 E.03284
G1 X137.269 Y104.806 E.03085
G1 X134.489 Y104.797 E.08716
G1 X133.792 Y104.631 E.02246
G1 X133.294 Y104.822 E.01672
G1 X132.22 Y104.99 E.03409
G1 X131.052 Y105.007 E.03662
G1 X129.943 Y104.821 E.03525
G1 X127.99 Y104.727 E.06131
G1 X127.322 Y104.528 E.02186
G1 X126.694 Y104.256 E.02146
G1 X126.493 Y104.22 E.00641
G1 X126.28 Y104.263 E.00681
G1 X125.667 Y104.533 E.02101
G1 X125.003 Y104.729 E.0217
G1 X123.062 Y104.821 E.06092
G1 X121.876 Y105.013 E.03768
G1 X120.738 Y104.987 E.03568
G1 X119.702 Y104.831 E.03287
G1 X119.171 Y104.639 E.0177
G1 X118.436 Y104.805 E.02361
G1 X115.359 Y104.759 E.09649
G1 X114.543 Y104.53 E.02657
G1 X113.794 Y104.154 E.02626
G1 X112.971 Y103.483 E.0333
G1 X112.191 Y102.381 E.04234
G1 X111.831 Y101.434 E.03175
G1 X111.706 Y100.236 E.03779
G1 X111.924 Y99.029 E.03845
G1 X112.362 Y98.023 E.03441
G1 X112.707 Y97.35 E.0237
G1 X113.23 Y96.46 E.03237
G1 X113.607 Y95.889 E.02145
G1 X114.304 Y94.96 E.03642
G1 X114.525 Y94.708 E.0105
M204 S1000
G1 X114.808 Y94.956 F10800
M204 S800
G1 F1200
G1 X115.353 Y94.334 E.02593
G1 X116.139 Y93.558 E.03462
G1 X117.021 Y92.808 E.03632
G1 X117.982 Y92.11 E.03723
G1 X118.924 Y91.528 E.03473
G1 X119.819 Y91.057 E.0317
G1 X120.971 Y90.555 E.03941
G1 X122.154 Y90.153 E.03917
G1 X123.184 Y89.886 E.03337
G1 X124.234 Y89.691 E.03347
G1 X125.427 Y89.561 E.03765
G1 X126.615 Y89.523 E.03725
G1 X127.624 Y89.565 E.03165
G1 X128.637 Y89.673 E.03197
G1 X129.784 Y89.879 E.03654
G1 X130.899 Y90.169 E.03613
G1 X132.002 Y90.545 E.03651
G1 X133.143 Y91.039 E.03898
G1 X134.075 Y91.528 E.03302
G1 X134.994 Y92.094 E.03384
G1 X135.944 Y92.781 E.03673
G1 X136.85 Y93.549 E.03724
G1 X137.646 Y94.334 E.03508
G1 X138.407 Y95.204 E.03621
G1 X139.08 Y96.102 E.03522
G1 X139.447 Y96.654 E.02078
G1 X139.959 Y97.527 E.03172
G1 X140.296 Y98.183 E.02314
G1 X140.723 Y99.163 E.03352
G1 X140.915 Y100.227 E.03388
G1 X140.806 Y101.326 E.03465
G1 X140.485 Y102.185 E.02875
G1 X139.767 Y103.21 E.03922
G1 X139 Y103.837 E.03107
G1 X138.133 Y104.245 E.03003
G1 X137.25 Y104.429 E.0283
G1 X134.513 Y104.42 E.08581
G1 X133.765 Y104.236 E.02416
G1 X133.214 Y104.453 E.01856
G1 X132.175 Y104.616 E.03299
G1 X131.064 Y104.63 E.03482
G1 X129.984 Y104.445 E.03438
G1 X128.075 Y104.359 E.0599
G1 X127.441 Y104.17 E.02076
G1 X126.804 Y103.893 E.02177
G1 X126.489 Y103.836 E.01005
G1 X126.165 Y103.901 E.01036
G1 X125.548 Y104.175 E.02116
G1 X124.918 Y104.361 E.02058
G1 X123.023 Y104.445 E.05949
G1 X121.866 Y104.636 E.03676
G1 X120.782 Y104.613 E.03399
G1 X119.778 Y104.461 E.03186
G1 X119.195 Y104.246 E.01947
G1 X118.417 Y104.428 E.02505
G1 X115.435 Y104.389 E.09349
G1 X114.695 Y104.184 E.02408
G1 X113.983 Y103.827 E.025
G1 X113.231 Y103.209 E.03051
G1 X112.514 Y102.185 E.03918
G1 X112.193 Y101.326 E.02875
G1 X112.084 Y100.226 E.03467
G1 X112.29 Y99.12 E.03527
G1 X112.7 Y98.19 E.03187
G1 X113.035 Y97.536 E.02304
G1 X113.547 Y96.663 E.03172
G1 X113.912 Y96.111 E.02076
G1 X114.602 Y95.192 E.03602
G1 X114.769 Y95.002 E.00795
M204 S1000
G1 X115.052 Y95.25 F10800
M204 S800
G1 F1200
G1 X115.623 Y94.598 E.02717
G1 X116.389 Y93.841 E.03375
G1 X117.26 Y93.1 E.03587
G1 X118.197 Y92.419 E.03632
G1 X119.117 Y91.853 E.03386
G1 X119.988 Y91.394 E.03088
G1 X121.114 Y90.904 E.03851
G1 X122.255 Y90.516 E.03778
G1 X123.272 Y90.253 E.03294
G1 X124.296 Y90.063 E.03263
G1 X125.447 Y89.938 E.03631
G1 X126.606 Y89.9 E.03638
G1 X127.602 Y89.941 E.03124
G1 X128.591 Y90.047 E.03118
G1 X129.696 Y90.246 E.03523
G1 X130.798 Y90.533 E.03568
G1 X131.873 Y90.899 E.03561
G1 X132.986 Y91.382 E.03805
G1 X133.883 Y91.853 E.03175
G1 X134.79 Y92.412 E.03342
G1 X135.717 Y93.082 E.03584
G1 X136.6 Y93.831 E.03634
G1 X137.376 Y94.598 E.0342
G1 X138.109 Y95.435 E.0349
G1 X138.775 Y96.324 E.03482
G1 X139.13 Y96.858 E.0201
G1 X139.631 Y97.713 E.03107
G1 X139.958 Y98.351 E.02248
G1 X140.357 Y99.255 E.03099
G1 X140.537 Y100.219 E.03073
G1 X140.443 Y101.221 E.03155
G1 X140.161 Y101.991 E.02573
G1 X139.506 Y102.936 E.03604
G1 X138.816 Y103.507 E.0281
G1 X138.032 Y103.881 E.02722
G1 X137.231 Y104.052 E.0257
G1 X134.538 Y104.043 E.08442
G1 X133.738 Y103.84 E.02589
G1 X133.134 Y104.084 E.02043
G1 X132.13 Y104.241 E.03185
G1 X131.078 Y104.253 E.03299
G1 X130.024 Y104.07 E.03354
G1 X128.16 Y103.991 E.05849
G1 X127.56 Y103.812 E.01965
G1 X126.925 Y103.534 E.02174
G1 X126.624 Y103.468 E.00966
G1 X126.484 Y103.462 E.00438
G1 X126.334 Y103.472 E.00471
G1 X126.038 Y103.545 E.00956
G1 X125.429 Y103.817 E.02092
G1 X124.834 Y103.992 E.01944
G1 X122.984 Y104.069 E.05807
G1 X121.856 Y104.259 E.03586
G1 X120.826 Y104.238 E.03228
G1 X119.854 Y104.091 E.03083
G1 X119.219 Y103.852 E.02128
G1 X118.397 Y104.05 E.02653
G1 X115.512 Y104.02 E.09043
G1 X114.815 Y103.826 E.02271
G1 X114.173 Y103.501 E.02256
G1 X113.492 Y102.936 E.02772
G1 X112.838 Y101.991 E.03602
G1 X112.556 Y101.221 E.02573
G1 X112.462 Y100.219 E.03156
G1 X112.656 Y99.214 E.03208
G1 X113.038 Y98.358 E.0294
G1 X113.363 Y97.722 E.02239
G1 X113.864 Y96.867 E.03108
G1 X114.217 Y96.333 E.02007
G1 X115.013 Y95.295 E.04101
M204 S1000
G1 X115.296 Y95.543 F10800
M204 S800
G1 F1200
G1 X115.893 Y94.861 E.02841
G1 X116.638 Y94.124 E.03287
G1 X117.499 Y93.392 E.03541
G1 X118.413 Y92.729 E.03541
G1 X119.309 Y92.177 E.033
G1 X120.157 Y91.731 E.03005
G1 X121.257 Y91.253 E.0376
G1 X122.357 Y90.88 E.03641
G1 X123.348 Y90.622 E.0321
G1 X124.357 Y90.436 E.03219
G1 X125.48 Y90.313 E.03542
G1 X126.598 Y90.278 E.03506
G1 X127.568 Y90.317 E.03044
G1 X128.544 Y90.421 E.03077
G1 X129.609 Y90.613 E.03392
G1 X130.683 Y90.892 E.03479
G1 X131.744 Y91.254 E.03515
G1 X132.83 Y91.725 E.03712
G1 X133.691 Y92.177 E.03049
G1 X134.587 Y92.729 E.03299
G1 X135.489 Y93.383 E.03495
G1 X136.351 Y94.114 E.03543
G1 X137.106 Y94.861 E.03331
G1 X137.812 Y95.667 E.03359
G1 X138.47 Y96.546 E.03442
G1 X138.812 Y97.062 E.01942
G1 X139.303 Y97.899 E.03042
G1 X139.62 Y98.519 E.02183
G1 X139.991 Y99.35 E.02853
G1 X140.16 Y100.213 E.02759
G1 X140.08 Y101.117 E.02846
G1 X139.836 Y101.799 E.02271
G1 X139.244 Y102.664 E.03286
G1 X138.629 Y103.178 E.02512
G1 X137.929 Y103.518 E.0244
G1 X137.211 Y103.675 E.02305
G1 X134.564 Y103.666 E.08298
G1 X133.71 Y103.442 E.02767
G1 X133.052 Y103.715 E.02233
G1 X132.086 Y103.866 E.03069
G1 X131.092 Y103.876 E.03115
G1 X130.064 Y103.694 E.03273
G1 X128.244 Y103.623 E.05712
G1 X127.7 Y103.462 E.01779
G1 X127.042 Y103.173 E.02254
G1 X126.673 Y103.093 E.01184
G1 X126.48 Y103.084 E.00606
G1 X126.276 Y103.098 E.0064
G1 X125.915 Y103.186 E.01164
G1 X125.287 Y103.467 E.02158
G1 X124.751 Y103.624 E.0175
G1 X122.945 Y103.693 E.05669
G1 X121.845 Y103.881 E.03499
G1 X120.87 Y103.863 E.03055
G1 X119.931 Y103.721 E.02977
G1 X119.244 Y103.457 E.02311
G1 X118.375 Y103.673 E.02806
G1 X115.587 Y103.649 E.08741
G1 X114.967 Y103.481 E.02014
G1 X114.363 Y103.174 E.02125
G1 X113.755 Y102.664 E.02487
G1 X113.164 Y101.799 E.03285
G1 X112.92 Y101.117 E.02272
G1 X112.84 Y100.214 E.02845
G1 X113.021 Y99.31 E.02889
G1 X113.379 Y98.518 E.02727
G1 X113.696 Y97.899 E.0218
G1 X114.182 Y97.071 E.0301
G1 X114.522 Y96.555 E.01938
G1 X115.256 Y95.588 E.03806
M204 S1000
G1 X115.54 Y95.836 F10800
M204 S800
G1 F1200
G1 X116.163 Y95.124 E.02965
G1 X116.898 Y94.397 E.03244
G1 X117.726 Y93.693 E.03407
G1 X118.617 Y93.046 E.03451
G1 X119.501 Y92.501 E.03257
G1 X120.326 Y92.068 E.02922
G1 X121.4 Y91.602 E.0367
G1 X122.458 Y91.243 E.03503
G1 X123.436 Y90.989 E.03167
G1 X124.419 Y90.808 E.03134
G1 X125.5 Y90.69 E.0341
G1 X126.59 Y90.655 E.03419
G1 X127.546 Y90.693 E.03002
G1 X128.497 Y90.795 E.02997
G1 X129.521 Y90.98 E.03262
G1 X130.581 Y91.255 E.03434
G1 X131.614 Y91.608 E.03424
M73 Q1 S55
G1 X132.673 Y92.068 E.03619
G1 X133.498 Y92.501 E.02923
G1 X134.383 Y93.046 E.03257
G1 X135.262 Y93.684 E.03406
M73 P1 R55
G1 X136.101 Y94.397 E.03452
G1 X136.836 Y95.124 E.03243
G1 X137.514 Y95.899 E.03228
G1 X138.165 Y96.767 E.03402
G1 X138.495 Y97.266 E.01873
G1 X138.97 Y98.076 E.02944
G1 X139.279 Y98.679 E.02124
G1 X139.626 Y99.447 E.02643
G1 X139.782 Y100.21 E.02444
G1 X139.716 Y101.017 E.02538
G1 X139.509 Y101.61 E.01968
G1 X138.979 Y102.394 E.02967
G1 X138.441 Y102.851 E.02214
G1 X137.824 Y103.155 E.02157
G1 X137.19 Y103.297 E.02035
G1 X134.591 Y103.289 E.08151
G1 X133.683 Y103.044 E.02949
G1 X132.97 Y103.346 E.02426
G1 X132.041 Y103.492 E.02949
G1 X131.107 Y103.499 E.02928
G1 X130.105 Y103.318 E.03194
G1 X128.327 Y103.254 E.05579
G1 X127.84 Y103.112 E.0159
G1 X127.159 Y102.813 E.02333
G1 X126.722 Y102.718 E.01402
G1 X126.475 Y102.706 E.00774
G1 X126.233 Y102.723 E.00761
G1 X125.993 Y102.768 E.00766
G1 X125.777 Y102.835 E.0071
G1 X125.145 Y103.118 E.02168
G1 X124.669 Y103.255 E.01553
G1 X122.906 Y103.318 E.05534
G1 X121.833 Y103.504 E.03414
G1 X120.914 Y103.488 E.02881
G1 X120.009 Y103.352 E.02869
G1 X119.441 Y103.129 E.01914
G1 X119.31 Y103.05 E.0048
G1 X118.352 Y103.296 E.031
G1 X115.662 Y103.279 E.08434
G1 X115.086 Y103.122 E.01873
G1 X114.555 Y102.849 E.01871
G1 X114.02 Y102.394 E.02203
G1 X113.491 Y101.61 E.02967
G1 X113.284 Y101.017 E.01969
G1 X113.218 Y100.21 E.02538
G1 X113.373 Y99.447 E.02444
G1 X113.721 Y98.677 E.02647
G1 X114.03 Y98.076 E.0212
G1 X114.505 Y97.266 E.02944
G1 X114.834 Y96.767 E.01873
G1 X115.501 Y95.881 E.03477
M204 S1000
G1 X115.785 Y96.13 F10800
M204 S800
G1 F1200
G1 X116.442 Y95.378 E.03132
G1 X117.158 Y94.67 E.03157
G1 X117.965 Y93.985 E.03318
G1 X118.821 Y93.364 E.03316
G1 X119.693 Y92.826 E.03214
G1 X120.495 Y92.405 E.0284
G1 X121.529 Y91.957 E.03533
G1 X122.56 Y91.606 E.03414
G1 X123.511 Y91.359 E.03081
G1 X124.48 Y91.18 E.0309
G1 X125.533 Y91.066 E.03321
G1 X126.581 Y91.032 E.03288
G1 X127.512 Y91.069 E.02922
G1 X128.45 Y91.17 E.02956
G1 X129.447 Y91.35 E.03176
G1 X130.466 Y91.614 E.03301
G1 X131.471 Y91.957 E.03331
G1 X132.504 Y92.405 E.0353
G1 X133.306 Y92.826 E.0284
G1 X134.179 Y93.364 E.03214
